modules/entypo/icons/doc-text.svg

<svg height="1000" width="700" xmlns="http://www.w3.org/2000/svg"><path d="M212 542v-90h280v90H212M600 50c28 0 51.667 9.667 71 29s29 43 29 71v700c0 26.667-9.667 50-29 70s-43 30-71 30H100c-26.667 0-50-10-70-30S0 876.667 0 850V150c0-28 10-51.667 30-71s43.333-29 70-29h500m0 800V150H100v700h500M490 258v88H210v-88h280m0 392v88H210v-88h280"/></svg>

<svg height="1000px" width="700px" xmlns="http://www.w3.org/2000/svg">
  <g>
    <path d="M212 542c0 0 0 -90 0 -90c0 0 280 0 280 0c0 0 0 90 0 90c0 0 -280 0 -280 0c0 0 0 0 0 0m388 -492c28 0 51.667 9.667 71 29c19.333 19.333 29 43 29 71c0 0 0 700 0 700c0 26.667 -9.667 50 -29 70c-19.333 20 -43 30 -71 30c0 0 -500 0 -500 0c-26.667 0 -50 -10 -70 -30c-20 -20 -30 -43.333 -30 -70c0 0 0 -700 0 -700c0 -28 10 -51.667 30 -71c20 -19.333 43.333 -29 70 -29c0 0 500 0 500 0c0 0 0 0 0 0m0 800c0 0 0 -700 0 -700c0 0 -500 0 -500 0c0 0 0 700 0 700c0 0 500 0 500 0c0 0 0 0 0 0m-110 -592c0 0 0 88 0 88c0 0 -280 0 -280 0c0 0 0 -88 0 -88c0 0 280 0 280 0c0 0 0 0 0 0m0 392c0 0 0 88 0 88c0 0 -280 0 -280 0c0 0 0 -88 0 -88c0 0 280 0 280 0c0 0 0 0 0 0" />
  </g>
</svg>
